X:7
T:Sheaver. Ru2.007, The
%%VWML:RutherfordVol2-2249-p4-0
F:http://www.vwml.org/record/RutherfordVol2/2249/p4
B:RUTHERFORD Complete Collection of 200 Country Dances Vol.2; 1759.
Z:vmp.Mike Hicken 2015 www.village-music-project.org.uk
M:6/8
Q:3/8=100
K:G
e/f/|gdB G2G|G2B A2c|B2d A2c|B2d e2f|gdB G2G|G2B A2c|BdB cAF G3-G2 :|
|:e/f/|gbg ege|faf dfd|bag fed|^ced cBA|dAd eAe|fAf gAg|bag fed|Ad^c def|
gdB G2G|G2B A2c|B2d A2c|B2d e2f|gdB G2G|G2B A2c|BdB cAF|G3-G2 |]
W:
W: First and second Cu: foot it and hands round .|  the
W: same back again :|  lead down two Cu: up again and
W: cast off .|.
T:Stolen Kiss. Ru2.008, The
L:1/8
B:RUTHERFORD Complete Collection of 200 Country Dances Vol.2; 1759.
Z:vmp.Mike Hicken 2015 www.village-music-project.org.uk
M:2/4
Q:1/2=80
K:A
A2 cA|BE dB|cedf|edcB|AEcE|BEdE|cedf|e4 :|
|: e2dc|dB,B,d|d2 cB|cA,A,d|cedf|ecaf|edcB A4 :|
W:
W: Foot it and turn partners with your
W: right hands .|  turn with your left
W: hands and cast off :|  Hands round
W: all 6 .|.  right and left at top :|.
